X: 16655
T: Hanny Christen's
R: polka
M: 2/4
K: Cmajor
"C"E/G/c/e/ ag|{/e}"G7"fB {/^c}dG|F/G/B/d/ ba|{/^f}"C"gc {/^d}eG|E/G/c/e/ ag|
{/e}"G7"fB {/^c}dG|1 {/^f}gg {/e}=fG|{/^d}eG {/^c}=dG:|2 {/^f}gg {/e}=fB|"C"ce cz||
[K:G]
"G"dB/c/ d/e/f/g/|"D7"fd/e/ f/g/a/b/|c'c' a/b/c'|"G"bb g/a/b|
dB/c/ d/e/f/g/|"D7"fd/e/ f/g/a/b/|c'c' d/e/f|"G"gg gz|
[K:C]
"G7".a!>!f2B|"C"cE/F/ G/A/B/c/|"G7"dG/A/ B/c/d/^d/|"C"ec/d/ e/f/^f/g/|
"G7".a!>!f2B|"C"cE/F/ G/A/B/c/|"Dm"Ad/f/ "G7"Bd/g/|"C"ce cz|
[K:F]
"F"c/f/f2g|"C7"fe/f/ eG|B/d/ !>!d2e|"F"dc/d/ cA|
A/a/ !>!a2b|"Gm/Bb"ag/a/ gf/g/|"C7"fe/f/ ed/e/|"F"fa f"_Fine"z:|
"Dm"a((3g/f/e/) dd|"A7"^ce A2|"Dm"d/^c/d/e/ f/e/f/g/|"A7"a/^g/a/b/ a2|
"Dm"a((3g/f/e/) dd|"A7"^ce A2|"Dm"d/e/f "A7"ea|"Dm".d2!>!"C7""_>Teil D"c2||

